!!!!SEGMENT: pl-wtm--670-sp-3678--001-013_schumann-robert--piosenki-dla-mlodocianego-wieku-piotr-maszynski-13-maly-zolnierz.krn
!!!cenid: 18xx:4765
!!!COM: Schumann, Robert
!!!COM-rismID: pe131206
!!!CDT: 1810/06/08-1856/07/29
!!!CNT: German
!!!GTL: Piosenki dla młodocianego wieku (Piotr Maszyński)
!!!OTL: 13. Mały żółnierz
!!!OMV: 013
!!!PDT: 1871
!!!AGN: Secular; Song; Children
!!!YEC: Copyright 2022 Narodowy Instytut Fryderyka Chopina (https://polishscores.org)
!!!YEM: License CC-BY-4.0 (https://creativecommons.org/licenses/by/4.0)
!!!SMS-siglum: PL-Wtm
!!!SMS-shelfmark: 670 śp 3678
!!!SMS-variant:
!!!SMS-altvar:
!!!SMS-shelfwork: 001-013 G
!!!NIFC-rismSourceID: 1001185478
!!!NIFC-rismChildID: 1001185478
!!!NIFC-islandoraID: pl-wtm:57754
!!!URL-pdf-islandora: https://repozytorium.nifc.pl/islandora/object/pl-wtm%3A57754/datastream/PDF/view
!!!URL-scan: https://polish.musicsources.pl/pl/lokalizacje/galeria/druki-muzyczne/19483/10 @EN{Scan on Polish Music Sources Website} @PL{Skany w portalu Dziedzictwo Muzyki Polskiej w otwartym dostępie}
!!!IIIF:
!!!ONB-nifc:
!!!AIN: 1 piano 1 vox
!!!key: C
!!!OMD: Marsz.
**kern	**fing	**kern	**fing	**dynam	**kern	**text	**dynam
*part2	*part2	*part2	*part2	*part2	*part1	*part1	*part1
*staff3	*staff3	*staff2	*staff2	*staff2/3	*staff1	*staff1	*staff1
*I"Fortepian.	*	*I"Fortepian.	*	*	*I"Śpiew.	*	*
*I'pf	*	*I'pf	*	*	*I'V	*	*
*Ipiano	*	*Ipiano	*	*	*Ivox	*	*
*ICklav	*	*ICklav	*	*	*ICvox	*	*
*IGacmp	*	*IGacmp	*	*	*IGsolo	*	*
*clefF4	*	*clefG2	*	*	*clefG2	*	*
*k[]	*	*k[]	*	*	*k[]	*	*
*C:	*	*C:	*	*	*C:	*	*
*M4/4	*	*M4/4	*	*	*M4/4	*	*
*met(c)	*	*met(c)	*	*	*met(c)	*	*
4r	.	4r	.	.	4g/	Niech	mf
=1	=1	=1	=1	=1	=1	=1	=1
!	!	!	!	!LO:DY:rj	!	!	!
4c'\	.	4cc 4g 4e'/	.	mf	4cc\	tyl-	.
4C'/	.	4cc 4g 4e'/	.	.	8.cc\	-ko-	.
.	.	.	.	.	16cc\	-bym	.
4c'\	.	4cc 4g 4e'/	.	.	4cc\	dos-	.
4r	.	4r	.	.	8dd\	-tał	.
.	.	.	.	.	8ee\	fu-	.
=2	=2	=2	=2	=2	=2	=2	=2
4GG/	.	4dd 4b 4g\	.	.	4dd\	-zyj-	.
*	*below	*	*	*	*	*	*
8.G\L	1	8.gL 8.d 8.B/	.	.	8.g/	-kę	.
16G\Jk	2	16gJk 16d 16B/	.	.	16g/	do	.
4G\	3	4g 4d 4B/	.	.	4g/	rąk	.
4r	.	4r	.	.	8g/	nie	.
.	.	.	.	.	8g/	tak	.
=3	=3	=3	=3	=3	=3	=3	=3
4G'\	.	4dd 4b 4g'\	.	.	4dd\	ła-	.
4GG'/	.	4dd 4b 4g'\	.	.	8.dd\	-two-	.
.	.	.	.	.	16dd\	-bym	.
4G'\	.	4dd 4b 4g'\	.	.	4dd\	cze-	.
4r	.	4r	.	.	8ee\	-go	.
.	.	.	.	.	8ff\	i	.
!!LO:LB:g=original
=4	=4	=4	=4	=4	=4	=4	=4
4C/	.	4ee 4cc 4g\	.	.	4ee\	ko-	.
8.c\L	1	8.ccL 8.g 8.e/	.	.	8.cc\	-go	.
16c\Jk	2	16ccJk 16g 16e/	.	.	16cc\	się	.
4c\	1	4cc 4g 4e/	.	.	4cc\	zląkł!	.
!	!	!LO:TX:t=P:problem=palcowanie obok nut	!	!	!	!	!
4C'/	.	4cc'\	4	.	4cc\	Jak	.
=5	=5	=5	=5	=5	=5	=5	=5
4c^\	.	4cc^\	.	.	4cc^\	żoł-	.
8.B\L	.	8.b/L	.	.	8.b\	-nierz	.
16A\Jk	.	16a/Jk	.	.	16a/	po-	.
4G\	.	4g/	.	.	4g/	-mi-	.
4C'/	.	4cc'\	.	.	4cc\	-mo	.
=6	=6	=6	=6	=6	=6	=6	=6
4c^\	.	4cc^\	.	.	4cc^\	zno-	.
8.B\L	.	8.b/L	.	.	8.b\	-ju,	.
16A\Jk	.	16a/Jk	.	.	16a/	czy	.
4G\	.	4g/	.	.	4g/	słot,	.
4C'/	.	4cc'\	.	.	8.cc\	ma-	.
.	.	.	.	.	16cc\	-sze-	.
!!LO:LB:g=original
=7	=7	=7	=7	=7	=7	=7	=7
4c^\	.	4cc^\	.	.	4cc^\	-ro-	.
8.B\L	.	8.b/L	.	.	8.b\	-wał-	.
16A\Jk	.	16a/Jk	.	.	16a/	-bym	.
4d\	.	4dd\	.	.	4dd\	wciąż	.
4D'\	.	4dd 4a 4f#X'/	1 3 5	.	4dd\	na	.
=8	=8	=8	=8	=8	=8	=8	=8
4G'\	2	4dd 4b 4g\	1 2 5	.	4dd\	le-	.
4c 4D'\	.	8.aL 8.f#X 8.d/	.	.	8.a/	-wo	.
.	.	16b'/Jk	.	.	16b\	w tył	.
4B 4G'\	.	4g 4d'/	.	.	4g/	zwrot.	.
4D'\	.	4dd 4a 4f#'/	.	.	4r	.	.
=9	=9	=9	=9	=9	=9	=9	=9
4G'\	.	4dd 4b 4g'\	.	.	2r	.	.
4c 4D'\	.	8.a'L 8.f#X 8.d/	.	.	.	.	.
.	.	16b'/Jk	.	.	.	.	.
4B 4G'\	.	4g 4d'/	.	.	4r	.	.
!	!	!	!	!LO:DY:rj	!	!	!
4G'\	1	4g'/	.	p	4g/	Od	p
=10	=10	=10	=10	=10	=10	=10	=10
4Fn'\	.	4g 4B'/	1 5	.	4g/	ra-	.
4G'\	.	4g'/	.	.	8a/	-na	.
.	.	.	.	.	8b\	sa-	.
4E'\	.	4g 4c'/	.	.	4cc\	-me-	.
4G'\	.	4g'/	.	.	4cc\	-go	.
!!LO:LB:g=original
=11	=11	=11	=11	=11	=11	=11	=11
4D'\	.	4g 4f 4B'/	.	.	4dd\	mu-	.
4G'\	.	4g'/	.	.	8cc\	-stra	.
.	.	.	.	.	8dd\	co-	.
4C'/	.	4g 4e 4c'/	.	.	4ee\	-dzień,	.
4G'\	.	4g'/	.	.	4g/	lecz	.
=12	=12	=12	=12	=12	=12	=12	=12
4F'\	.	4g 4B'/	.	.	4g/	niech	.
4G'\	.	4g'/	.	.	8a/	się	.
.	.	.	.	.	8b\	z da-	.
4E'\	.	4g 4c'/	.	.	4cc\	-le-	.
4G'\	.	4g'/	.	.	4cc\	-ka	.
=13	=13	=13	=13	=13	=13	=13	=13
4D'\	.	4g 4f 4B'/	.	.	4dd\	trzy-	.
4G'\	.	4g'/	.	.	8cc\	-ma	.
.	.	.	.	.	8dd\	kto	.
4C'/	.	4g 4e 4c'/	.	.	4ee\	leń,	.
!	!	!	!	!	!	!	!LO:DY:rj
4r	.	4r	.	.	4cc\	bo	f
!!LO:PB:g=original
=14	=14	=14	=14	=14	=14	=14	=14
4CC/	.	4g 4e 4c/	.	.	4g/	u	.
8.C/L	1	8.gL 8.e 8.c/	.	.	8.g/	mnie	.
16C/Jk	2	16gJk 16e 16c/	.	.	16g/	do-	.
2C/	1	2g 2e 2c/	.	.	4g/	-pó-	.
.	.	.	.	.	4cc\	-ty	.
=15	=15	=15	=15	=15	=15	=15	=15
4FF/	.	4a 4f 4c^>/	.	.	4a/	służ-	.
8.F\L	1	8.aL 8.f 8.c/	.	.	8.a/	-ba	.
16F\Jk	2	16aJk 16f 16c/	.	.	16a/	ma	.
2F\	1	2a 2f 2c/	.	.	4a/	trwać	.
.	.	.	.	.	8.a/	aż	.
.	.	.	.	.	16a/	ko-	.
=16	=16	=16	=16	=16	=16	=16	=16
4D\	.	4a 4f 4d/	1 2 4	.	4a/	-men-	.
4G\	.	8.bL 8.f 8.d/	1 2 5	.	8.b\	-da	.
.	.	16ccJk 16e/	1 5	.	16cc\	za-	.
4GG/	.	4dd 4f/	1 5	.	4dd\	-wo-	.
!	!	!	!	!LO:DY:rj	!	!	!LO:DY:rj
4G'\	.	4b 4g 4f 4d'/	.	f	4b\	-ła:	f
=17	=17	=17	=17	=17	=17	=17	=17
4C/	.	4cc 4g 4e'/	.	.	4cc\	kłaść	.
8.C/L	3	8.c/L	3	.	8.c/	się	.
16C/Jk	2	16c/Jk	2	.	16c/	i	.
4C/	1	4c/	1	.	4c/	spać!	.
4r	.	4r	.	.	4r	.	.
==	==	==	==	==	==	==	==
*-	*-	*-	*-	*-	*-	*-	*-
!!!system-decoration: s1{(s2,s3)}
!!!RDF**kern: > = above
!!!ENC: Andrzej Gręziak
!!!END: 2025-03-26
!!!EED: Marta Lawrence
!!!EEV: 2025-03-30
